X: 190
T: Lilla Härbresvalsen
C: Lars Hökpers
O: Dalarna
Z:Transcribed to abcby Jon Magnusson 080502
R: Vals
M: 3/4
L: 1/8
K: G
D|:G2GB dB|c2 cB AG|F2 FA dc|B2 BA GF|E2 EG BG|A2 AG FE|D2 DF GF|[1 E4 D2:|[2 E4 GF|]
E2 EF GA|B4 AG|FD FA dc|B4 BA|G2 GB gf|e2 ed cB|A^G AB cd|B4 GF|
E2 EF GA|B4 AG|FD FA dc|B4 BA|G2 GB gf|e2 ed cB|AG FG AF|G6||
(:musicend:)

(:music:)
